src/assets/IconVotingFailed.svg

<svg width="56" height="57" viewBox="0 0 56 57" fill="none" xmlns="http://www.w3.org/2000/svg">
<path d="M54.9794 28.5745C54.9794 43.4686 42.9054 55.5426 28.0112 55.5426C13.1171 55.5426 1.04307 43.4686 1.04307 28.5745C1.04307 13.6804 13.1171 1.6063 28.0112 1.6063C42.9054 1.6063 54.9794 13.6804 54.9794 28.5745Z" stroke="#FEC3C3" stroke-width="1.8"/>
<path opacity="0.7" d="M24.2681 37.2335C24.2681 38.1474 25.0168 38.8965 25.9314 38.8965H34.5552L33.4488 44.1739C33.3153 44.794 33.5064 45.4398 33.9555 45.8856L35.2779 47.2096L43.492 38.9958C43.9427 38.5463 44.224 37.9246 44.224 37.2335V26.4279C44.224 25.0477 43.1101 23.9334 41.7299 23.9334H30.5041C29.474 23.9334 28.5856 24.557 28.2093 25.4541L24.4432 34.2522C24.3351 34.5331 24.2681 34.8327 24.2681 35.1567V37.2354L24.2681 37.2335Z" fill="url(#paint0_linear)"/>
<path d="M32.2498 21.9387C32.2447 21.0187 31.5015 20.2757 30.5865 20.2757H21.9627L23.0691 14.9983C23.2027 14.3782 23.0115 13.7325 22.5625 13.2867L21.24 11.9626L13.0259 20.1764C12.5752 20.6259 12.2939 21.2495 12.2939 21.9387V32.7443C12.2939 34.1245 13.4078 35.2388 14.788 35.2388H26.0139C27.0439 35.2388 27.9323 34.6152 28.3086 33.7182L32.0748 24.9238C32.1828 24.641 32.2498 24.3414 32.2498 24.0174V21.9387Z" fill="url(#paint1_linear)"/>
<defs>
<linearGradient id="paint0_linear" x1="22.7252" y1="45.2194" x2="44.5163" y2="30.46" gradientUnits="userSpaceOnUse">
<stop stop-color="#FF6969"/>
<stop offset="1" stop-color="#FF8888"/>
</linearGradient>
<linearGradient id="paint1_linear" x1="-17.553" y1="61.0982" x2="36.0105" y2="23.2653" gradientUnits="userSpaceOnUse">
<stop stop-color="#FFA1A1"/>
<stop offset="1" stop-color="#FF6969"/>
</linearGradient>
</defs>
</svg>

<svg width="56" height="57" fill="none" xmlns="http://www.w3.org/2000/svg"><path d="M54.98 28.575c0 14.894-12.075 26.968-26.969 26.968-14.894 0-26.968-12.074-26.968-26.968 0-14.895 12.074-26.969 26.968-26.969S54.98 13.68 54.98 28.574z" stroke="#FEC3C3" stroke-width="1.8"/><path opacity=".7" d="M24.268 37.233c0 .914.749 1.664 1.663 1.664h8.624l-1.106 5.277a1.86 1.86 0 00.507 1.712l1.322 1.324 8.214-8.214a2.48 2.48 0 00.732-1.763V26.428a2.49 2.49 0 00-2.494-2.495H30.504c-1.03 0-1.918.624-2.295 1.521l-3.766 8.798c-.108.281-.175.58-.175.905v2.078-.002z" fill="url(#paint0_linear)"/><path d="M32.25 21.939a1.668 1.668 0 00-1.663-1.663h-8.624l1.106-5.278a1.86 1.86 0 00-.506-1.711l-1.323-1.324-8.214 8.213a2.483 2.483 0 00-.732 1.763v10.805a2.49 2.49 0 002.494 2.495h11.226c1.03 0 1.918-.624 2.295-1.52l3.766-8.795c.108-.283.175-.583.175-.907V21.94z" fill="url(#paint1_linear)"/><defs><linearGradient id="paint0_linear" x1="22.725" y1="45.219" x2="44.516" y2="30.46" gradientUnits="userSpaceOnUse"><stop stop-color="#FF6969"/><stop offset="1" stop-color="#F88"/></linearGradient><linearGradient id="paint1_linear" x1="-17.553" y1="61.098" x2="36.011" y2="23.265" gradientUnits="userSpaceOnUse"><stop stop-color="#FFA1A1"/><stop offset="1" stop-color="#FF6969"/></linearGradient></defs></svg>
